X: 1
T:Paddy Fahys reel (number 9)
M:4/4
L:1/8
C:Paddy Fahy
K:A
 EB,EB GEBG | EBGB AFDF | EB,EB GEBG | EDB,C DCDB, |
 EB~B2 AB~B2 | eBGB AFDF | EB,EB GEBG | EDB,C DEFA :||:
 Be~e2 BeGe | dcdB ADFA | ~B2ed BAFE | FDB,C DEFA |
 Be~e2 BeGe | dcdB AFDF | EB,EF =GFGA | (3Bcd ec dBAF :||
